icons/svg/bandit.svg

<svg xmlns="http://www.w3.org/2000/svg" viewBox="0 0 350 350"><switch><g><path d="M290.128 290h-89.795L175.5 250.833 108.333 222.5 60 272.813l-.128-18.479V60.001h230.256V290z" fill="#fff"/><path d="M280.82 280.794H188L178 270l-19.667 15.667-14-34.334-38.416 40.755-5.584-68.755-31.153 28.334V69.39h211.64z"/><path d="M243.625 180.641c-.584-.603 2.096-3.774 3.75-4.583.18-.088.329-.139.424-.074.376.261-.19 2.312-1.588 3.565-.83.742-2.233 1.456-2.586 1.092zM252.271 171.104c-.399-.508 3.282-4.502 3.813-4.146.299.201-.232 1.896-1.417 3-.862.804-2.191 1.407-2.396 1.146zM266.344 154.906c.267.284 2.022-.647 3.219-2.094 1.129-1.365 1.776-3.207 1.438-3.438-.423-.288-2.396 1.935-3.5 3.438-.625.85-1.372 1.866-1.157 2.094zM236.708 190.583l-91.274-8.761 10.691-44.697-28.75-32.313-5.542 10.521 1.417-19.083L149 123.938l2.75-11.896.042-3.208.063-.396c15.373-44.455 20.301-59.924 19.792-60.167-.869-.415-1.208-.146-1.208-.146-.23.189-.189.583-.188.625.035.741-5.963 18.729-19.542 58.375a16.168 16.168 0 01-1.583-7.563l-4.875 5.688-27.917-32.208a26573.816 26573.816 0 00-9.166 220.458l52.75-59.458 15.596 24.595 61.194-68.054zm-96.229-83.979a114.675 114.675 0 016.396 7.646l-.313 1.344-16.688-19.203a114.68 114.68 0 0110.605 10.213z"/><g fill="#fff"><path d="M243.625 180.641c-.584-.603 2.096-3.774 3.75-4.583.18-.088.329-.139.424-.074.376.261-.19 2.312-1.588 3.565-.83.742-2.233 1.456-2.586 1.092zM252.271 171.104c-.399-.508 3.282-4.502 3.813-4.146.299.201-.232 1.896-1.417 3-.862.804-2.191 1.407-2.396 1.146zM266.344 154.906c.267.284 2.022-.647 3.219-2.094 1.129-1.365 1.776-3.207 1.438-3.438-.423-.288-2.396 1.935-3.5 3.438-.625.85-1.372 1.866-1.157 2.094zM236.708 190.583l-91.274-8.761 10.691-44.697-28.75-32.313-5.542 10.521 1.417-19.083L149 123.938l2.75-11.896.042-3.208.063-.396c15.373-44.455 20.301-59.924 19.792-60.167-.869-.415-1.208-.146-1.208-.146-.23.189-.189.583-.188.625.035.741-5.963 18.729-19.542 58.375a16.168 16.168 0 01-1.583-7.563l-4.875 5.688-27.917-32.208a26573.816 26573.816 0 00-9.166 220.458l52.75-59.458 15.596 24.595 61.194-68.054zm-96.229-83.979a114.675 114.675 0 016.396 7.646l-.313 1.344-16.688-19.203a114.68 114.68 0 0110.605 10.213z"/></g><linearGradient id="bandit-a" gradientUnits="userSpaceOnUse" x1="109.581" y1="284.893" x2="237.187" y2="63.874"><stop offset="0" stop-color="#fbd267"/><stop offset=".782" stop-color="#f7921e"/></linearGradient><path d="M184 33.167l-34.667 100.667-21.5-25.333-17.958 176.563 50.792-58.229L175 256.5l123.667-154.333-114.667-69z" fill="url(#bandit-a)"/><g><path d="M280.82 61.5l-99.07 173.583-18-49-53.025 90.619 1.557-15.296L162 117.25l18.5 21.5 44-106.25 56.32 29z"/><path d="M113.458 266.125L165.75 131.25l18.125 26.375 50.454-120.064 38.135 19.636-87.881 160.469L166 169.749l-52.542 96.376z" fill="#fff"/></g><path d="M67.729 247.75l1.385 14.676L95.75 235.5l5.917 71.167L145.875 259l9.625 37 22.5-21 15.667 24.5 30.365-38.156-8.031-6.677L195.167 281l-15.333-22.333-18.667 18.5-11.667-37.334-39.333 43.333-7-70.333-35.438 34.917z" fill="#fff"/></g></switch></svg>

<svg xmlns="http://www.w3.org/2000/svg" viewBox="0 0 350 350"><switch><g><path d="M290.128,290h-89.795c-8.278-13.056-16.556-26.111-24.833-39.167 c-22.389-9.444-44.778-18.889-67.167-28.333C92.222,239.271,76.111,256.042,60,272.813c-0.043-6.16-0.085-12.319-0.128-18.479 c0-64.778,0-129.556,0-194.333h230.256V290z" fill="#fff"/><path d="M280.82 280.794L188 280.794 178 270 158.333 285.667 144.333 251.333 105.917 292.088 100.333 223.333 69.18 251.667 69.18 69.39 280.82 69.39z"/><path d="M243.625 180.641c-.584-.603 2.096-3.774 3.75-4.583.18-.088.329-.139.424-.074.376.261-.19 2.312-1.588 3.565C245.381 180.291 243.978 181.005 243.625 180.641zM252.271 171.104c-.399-.508 3.282-4.502 3.813-4.146.299.201-.232 1.896-1.417 3C253.805 170.762 252.476 171.365 252.271 171.104zM266.344 154.906c.267.284 2.022-.647 3.219-2.094 1.129-1.365 1.776-3.207 1.438-3.438-.423-.288-2.396 1.935-3.5 3.438C266.876 153.662 266.129 154.678 266.344 154.906zM236.708 190.583c-30.425-2.92-60.849-5.841-91.274-8.761 3.564-14.899 7.127-29.798 10.691-44.697-9.583-10.771-19.167-21.542-28.75-32.313-1.847 3.507-3.694 7.014-5.542 10.521.472-6.361.944-12.722 1.417-19.083 8.583 9.229 17.167 18.458 25.75 27.688.917-3.965 1.833-7.931 2.75-11.896.014-1.069.028-2.139.042-3.208.021-.132.042-.264.063-.396 15.373-44.455 20.301-59.924 19.792-60.167-.869-.415-1.208-.146-1.208-.146l0 0c-.23.189-.189.583-.188.625.035.741-5.963 18.729-19.542 58.375-.512-1.067-1.081-2.549-1.381-4.38-.198-1.205-.234-2.286-.202-3.183-1.625 1.896-3.25 3.792-4.875 5.688-9.306-10.736-18.611-21.472-27.917-32.208-2.631 57.532-5.076 115.074-7.333 172.625-.625 15.943-1.237 31.887-1.833 47.833 17.583-19.819 35.167-39.639 52.75-59.458 5.199 8.198 10.397 16.397 15.596 24.595C195.911 235.952 216.31 213.268 236.708 190.583zM140.479 106.604c2.389 2.616 4.513 5.185 6.396 7.646l-.313 1.344c-5.563-6.401-11.125-12.802-16.688-19.203C133.247 99.245 136.848 102.628 140.479 106.604z"/><path d="M243.625 180.641c-.584-.603 2.096-3.774 3.75-4.583.18-.088.329-.139.424-.074.376.261-.19 2.312-1.588 3.565C245.381 180.291 243.978 181.005 243.625 180.641zM252.271 171.104c-.399-.508 3.282-4.502 3.813-4.146.299.201-.232 1.896-1.417 3C253.805 170.762 252.476 171.365 252.271 171.104zM266.344 154.906c.267.284 2.022-.647 3.219-2.094 1.129-1.365 1.776-3.207 1.438-3.438-.423-.288-2.396 1.935-3.5 3.438C266.876 153.662 266.129 154.678 266.344 154.906zM236.708 190.583c-30.425-2.92-60.849-5.841-91.274-8.761 3.564-14.899 7.127-29.798 10.691-44.697-9.583-10.771-19.167-21.542-28.75-32.313-1.847 3.507-3.694 7.014-5.542 10.521.472-6.361.944-12.722 1.417-19.083 8.583 9.229 17.167 18.458 25.75 27.688.917-3.965 1.833-7.931 2.75-11.896.014-1.069.028-2.139.042-3.208.021-.132.042-.264.063-.396 15.373-44.455 20.301-59.924 19.792-60.167-.869-.415-1.208-.146-1.208-.146l0 0c-.23.189-.189.583-.188.625.035.741-5.963 18.729-19.542 58.375-.512-1.067-1.081-2.549-1.381-4.38-.198-1.205-.234-2.286-.202-3.183-1.625 1.896-3.25 3.792-4.875 5.688-9.306-10.736-18.611-21.472-27.917-32.208-2.631 57.532-5.076 115.074-7.333 172.625-.625 15.943-1.237 31.887-1.833 47.833 17.583-19.819 35.167-39.639 52.75-59.458 5.199 8.198 10.397 16.397 15.596 24.595C195.911 235.952 216.31 213.268 236.708 190.583zM140.479 106.604c2.389 2.616 4.513 5.185 6.396 7.646l-.313 1.344c-5.563-6.401-11.125-12.802-16.688-19.203C133.247 99.245 136.848 102.628 140.479 106.604z" fill="#fff"/><linearGradient id="a" gradientUnits="userSpaceOnUse" x1="109.581" y1="284.893" x2="237.187" y2="63.874"><stop offset="0" stop-color="#fbd267"/><stop offset=".782" stop-color="#f7921e"/></linearGradient><path d="M184,33.167l-34.667,100.667l-21.5-25.333c-5.986,58.854-11.972,117.708-17.958,176.563 c16.931-19.41,33.861-38.819,50.792-58.229L175,256.5l123.667-154.333L184,33.167z" fill="url(#a)"/><path d="M280.82,61.5c-33.023,57.861-66.047,115.722-99.07,173.583c-6-16.333-12-32.667-18-49 c-17.675,30.206-35.35,60.412-53.025,90.619c0.519-5.099,1.038-10.197,1.557-15.296 c16.573-48.052,33.145-96.104,49.718-144.156c6.167,7.167,12.333,14.333,18.5,21.5l44-106.25L280.82,61.5z"/><path d="M113.458,266.125c17.431-44.958,34.861-89.917,52.292-134.875l18.125,26.375l50.454-120.064 l38.135,19.636c-29.294,53.49-58.587,106.979-87.881,160.469c-6.194-15.972-12.389-31.944-18.583-47.917 C148.486,201.875,130.972,234,113.458,266.125z" fill="#fff"/><path d="M67.729,247.75c0.462,4.892,0.923,9.784,1.385,14.676 c8.879-8.975,17.757-17.951,26.636-26.926l5.917,71.167L145.875,259l9.625,37l22.5-21l15.667,24.5 c10.122-12.719,20.243-25.438,30.365-38.156c-2.677-2.226-5.354-4.451-8.031-6.677L195.167,281l-15.333-22.333l-18.667,18.5 L149.5,239.833l-39.333,43.333l-7-70.333C91.354,224.472,79.542,236.111,67.729,247.75z" fill="#fff"/></g></switch></svg>
